app/assets/images/icons/icon-doc.svg

<svg width="238" height="278" viewBox="0 0 238 278" fill="none" xmlns="http://www.w3.org/2000/svg">
<path d="M169.533 0H36.2839V122.25H54.2173V17.931H151.6V86.3885H220.136V260.138H151.6V278H238V68.527V68.4575V68.527L169.533 0ZM169.464 68.4575V25.298L212.699 68.4575H169.464ZM0 139V278H133.666V139H0ZM115.733 255.204L82.5771 222.052L59.5 245.127L45.5286 231.157L17.7944 258.888V156.931H115.664V255.204H115.733ZM99.3288 196.615C99.3288 201.897 95.0193 206.207 89.7366 206.207C84.4539 206.207 80.1443 201.897 80.1443 196.615C80.1443 191.333 84.4539 187.025 89.7366 187.025C95.0193 187.094 99.3288 191.333 99.3288 196.615Z" fill="white"/>
</svg>

<svg width="238" height="278" fill="none" xmlns="http://www.w3.org/2000/svg"><path d="M169.533 0H36.283v122.25h17.934V17.931H151.6v68.457h68.536v173.75H151.6V278H238V68.457v.07L169.533 0zm-.069 68.457V25.298l43.235 43.16h-43.235zM0 139v139h133.666V139H0zm115.733 116.204l-33.156-33.152L59.5 245.127l-13.971-13.97-27.735 27.731V156.931h97.87v98.273h.069zm-16.404-58.589c0 5.282-4.31 9.592-9.592 9.592-5.283 0-9.593-4.31-9.593-9.592 0-5.282 4.31-9.59 9.593-9.59 5.282.069 9.592 4.308 9.592 9.59z" fill="#fff"/></svg>
